X: 107
M: 6/8
L: 1/8
K: D
|:\
f2a gfe | d2d Te2d | f2a gfe | ddd d3 ::\
d2f d2f | ecA A3 | B2d B2d | cAF F3 |\


